melody-of-light/img/icons/box2.svg

<svg width="28" height="28" viewBox="0 0 28 28" fill="none" xmlns="http://www.w3.org/2000/svg">
<g clip-path="url(#clip0)">
<path d="M27.3776 6.9257C27.3776 6.89611 27.3776 6.89611 27.3776 6.86651C27.348 6.80732 27.348 6.74812 27.3184 6.68893V6.65933C27.2888 6.60014 27.2296 6.54094 27.2 6.51135L27.1704 6.48175C27.1408 6.45215 27.0816 6.42255 27.052 6.39296L27.0224 6.36336H26.9928L26.9632 6.33376L14.3845 0.0887911C14.1477 -0.029597 13.8518 -0.029597 13.5854 0.0887911L9.35301 2.19018L21.9909 8.67193L22.0205 8.70153C22.0501 8.70153 22.0501 8.73112 22.0797 8.73112C22.1093 8.76072 22.1093 8.79032 22.1389 8.81991C22.1389 8.84951 22.1389 8.84951 22.1389 8.87911V8.9087V15.7752C22.1389 15.8936 22.0797 15.9824 21.9909 16.0416L19.4456 17.3735C19.2976 17.4622 19.12 17.4031 19.0312 17.2551C19.0016 17.2255 19.0016 17.1663 19.0016 17.1071V10.3886L6.21572 3.78842L6.18612 3.75882L1.06584 6.30417L1.03624 6.33376H1.00664L0.977047 6.36336C0.947449 6.39296 0.888255 6.42255 0.858658 6.45215L0.829061 6.48175C0.769867 6.54094 0.74027 6.60014 0.681076 6.65933V6.68893C0.651479 6.74812 0.621882 6.80732 0.621882 6.86651C0.621882 6.89611 0.621882 6.89611 0.621882 6.9257C0.621882 6.9849 0.592285 7.0145 0.592285 7.07369V7.10329V20.8955C0.592285 21.2211 0.769867 21.5466 1.09543 21.6946L13.5558 27.91C13.7334 27.9988 13.9405 28.0284 14.1477 27.9692L14.2069 27.9396C14.2661 27.9396 14.2957 27.91 14.3549 27.8804L26.904 21.665C27.2 21.517 27.4072 21.2211 27.4072 20.8659V7.10329V7.07369C27.3776 7.0145 27.3776 6.9849 27.3776 6.9257Z" fill="#EC863D"/>
</g>
<defs>
<clipPath id="clip0">
<rect width="28" height="28" fill="white"/>
</clipPath>
</defs>
</svg>

<svg width="28" height="28" fill="none" xmlns="http://www.w3.org/2000/svg"><g clip-path="url(#clip0)"><path d="M27.378 6.926v-.06c-.03-.059-.03-.118-.06-.177v-.03a.646.646 0 00-.118-.148l-.03-.03c-.03-.029-.088-.058-.118-.088l-.03-.03h-.03l-.029-.03L14.384.09a.943.943 0 00-.799 0l-4.232 2.1 12.638 6.482.03.03c.03 0 .03.03.059.03.03.029.03.058.059.088v6.955a.31.31 0 01-.148.267l-2.545 1.331c-.148.09-.326.03-.415-.118-.03-.03-.03-.089-.03-.148V10.39L6.216 3.79l-.03-.03-5.12 2.545-.03.03h-.03l-.029.03c-.03.029-.089.059-.118.088l-.03.03C.77 6.54.74 6.6.681 6.659v.03a.42.42 0 00-.06.178v.059c0 .059-.029.088-.029.148v13.821c0 .326.178.652.503.8l12.46 6.215a.813.813 0 00.593.06l.059-.03c.06 0 .089-.03.148-.06l12.549-6.215a.891.891 0 00.503-.8V7.074c-.03-.059-.03-.088-.03-.147z" fill="#EC863D"/></g><defs><clipPath id="clip0"><path fill="#fff" d="M0 0h28v28H0z"/></clipPath></defs></svg>
